X: 25904
T: Mattie And Karine's
R: jig
M: 6/8
K: Gmajor
D|:GAB d2g-|g2g fed|Bce edB|BAG AF/E/D|
GAB dgd|gga fed|Bce edB|1 Bcd AF/E/D:|2 BAG AF/E/D||
|:CEG EFD|CEG DFG-|GE/F/G EFD|CEG FDB,|
CEG EFD|CEG DFG-|GE/F/G EFD|1 CEG DFG:|2 CEG DED||
|:Gdd GdF-|Fdd dFD|E2c cGE|FGA DFA|
Gdd GdF-|Fdd dFD|E2c cGE|FED DED:|

